X:1
T:The Dying British Sergeant
M:4/4
L:1/8
K:F
 z4 z2 A,2| D2 DEF-E DE| F2 G2 A3 A| d2 AA A2 G2| F2 DDD-A, A,2| DD DEF-E DE|\
 F2 G2 A3 A| d3 A A2 G2| F3 D D- D2 z|
